Newaita-dark/actions/16/code-context.svg

<?xml version="1.0" encoding="UTF-8"?>
<svg xmlns="http://www.w3.org/2000/svg" xmlns:xlink="http://www.w3.org/1999/xlink" width="16pt" height="16pt" viewBox="0 0 16 16" version="1.1">
<g id="surface1">
<path style=" stroke:none;fill-rule:nonzero;fill:rgb(47.058824%,56.470591%,61.176473%);fill-opacity:1;" d="M 5.292969 1.449219 C 3.828125 1.449219 2.644531 2.628906 2.644531 4.09375 L 2.644531 6.90625 C 2.644531 7.402344 1.820312 7.402344 1.324219 7.402344 C 1.140625 7.402344 0.992188 7.695312 0.992188 8.0625 C 0.992188 8.429688 1.140625 8.726562 1.324219 8.726562 C 1.820312 8.726562 2.644531 8.726562 2.644531 9.222656 L 2.644531 12.03125 C 2.644531 13.5 3.828125 14.679688 5.292969 14.679688 L 5.953125 14.679688 C 6.136719 14.679688 6.285156 14.382812 6.285156 14.015625 C 6.285156 13.652344 6.136719 13.355469 5.953125 13.355469 L 5.292969 13.355469 C 4.558594 13.355469 3.96875 12.765625 3.96875 12.03125 L 3.96875 9.222656 C 3.96875 8.640625 3.886719 8.0625 3.308594 8.0625 C 3.886719 8.0625 3.96875 7.484375 3.96875 6.90625 L 3.96875 4.09375 C 3.96875 3.359375 4.558594 2.769531 5.292969 2.769531 L 5.953125 2.769531 C 6.136719 2.769531 6.285156 2.476562 6.285156 2.109375 C 6.285156 1.742188 6.136719 1.449219 5.953125 1.449219 Z M 10.585938 1.449219 C 10.402344 1.449219 10.253906 1.742188 10.253906 2.109375 C 10.253906 2.476562 10.402344 2.769531 10.585938 2.769531 L 11.246094 2.769531 C 11.980469 2.769531 12.570312 3.359375 12.570312 4.09375 L 12.570312 6.90625 C 12.574219 7.414062 12.648438 8.054688 13.230469 8.0625 C 12.613281 8.109375 12.570312 8.734375 12.570312 9.222656 L 12.570312 12.03125 C 12.570312 12.765625 11.980469 13.355469 11.246094 13.355469 L 10.585938 13.355469 C 10.402344 13.355469 10.253906 13.652344 10.253906 14.015625 C 10.253906 14.382812 10.402344 14.679688 10.585938 14.679688 L 11.246094 14.679688 C 12.710938 14.679688 13.890625 13.5 13.890625 12.03125 L 13.890625 9.222656 C 13.890625 8.726562 14.71875 8.726562 15.214844 8.726562 C 15.398438 8.726562 15.546875 8.429688 15.546875 8.0625 C 15.546875 7.695312 15.398438 7.402344 15.214844 7.402344 C 14.71875 7.402344 13.890625 7.402344 13.890625 6.90625 L 13.890625 4.09375 C 13.890625 2.628906 12.710938 1.449219 11.246094 1.449219 Z M 10.585938 1.449219 "/>
</g>
</svg>

<svg xmlns="http://www.w3.org/2000/svg" width="16pt" height="16pt" viewBox="0 0 16 16"><path d="M5.293 1.45a2.642 2.642 0 0 0-2.648 2.644v2.812c0 .496-.825.496-1.32.496-.184 0-.333.293-.333.66 0 .368.149.665.332.665.496 0 1.32 0 1.32.496v2.808a2.643 2.643 0 0 0 2.649 2.649h.66c.184 0 .332-.297.332-.664 0-.364-.148-.66-.332-.66h-.66a1.32 1.32 0 0 1-1.324-1.325V9.223c0-.582-.082-1.16-.66-1.16.578 0 .66-.579.66-1.157V4.094c0-.735.59-1.324 1.324-1.324h.66c.184 0 .332-.293.332-.66 0-.368-.148-.66-.332-.66zm5.293 0c-.184 0-.332.292-.332.66 0 .367.148.66.332.66h.66c.734 0 1.324.59 1.324 1.324v2.812c.004.508.078 1.149.66 1.157-.617.046-.66.671-.66 1.16v2.808a1.32 1.32 0 0 1-1.324 1.324h-.66c-.184 0-.332.297-.332.66 0 .368.148.665.332.665h.66a2.64 2.64 0 0 0 2.645-2.649V9.223c0-.496.828-.496 1.324-.496.183 0 .332-.297.332-.665 0-.367-.149-.66-.332-.66-.496 0-1.324 0-1.324-.496V4.094a2.639 2.639 0 0 0-2.645-2.645zm0 0" fill="#78909c"/></svg>
